X:1
T:John McNeill's Highland Fling
T:John McNeill's Highland Fling
T:James Scott Skinner
C:James Scott Skinner
L:1/8
M:4/4
K:D
V:1 treble 
V:1
 a | e>A A/<A/A a>Ac<a | c/d/e g>d B>GG>f | e>A A/<A/A a>A c<a | c/d/e a>e c>A A :| e | %6
 a/g/f e>A a>A c<a | g/f/e d>G g>g B<g | a/g/f e>A a>Ae>d | c/d/e a>e c>A A>e | %10
 (3agf (3edc (3agf (3edc | (3gfe (3dcB (3gfe d>f | e>A A/<A/A e>A c<a | g/f/e a>e cAA |] %14

